X:1
T:He That Believeth
T:Philip Paul Bliss, 1874
T:He That Believeth
T:Public Domain
T:Public Domain
C:Philip Paul Bliss, 1874
Z:Public Domain
%%score ( 1 2 ) ( 3 4 )
L:1/8
M:4/4
K:C
V:1 treble 
V:2 treble 
V:3 bass 
V:4 bass 
V:1
 [EG]2 [EG]>[EG] [Ec]2 [GB]2 | [FA]2 [FA]2 [Ad]4 | [Ge]2 [Gc]>[Gc] [GB]2 [Fd]2 | %3
w: 1.~Hear ye the glad good|news from Heav’n?|Life to a death- doomed|
w: 2.~When we were lost, the|Son of God|Made an a- tone- ment|
w: 3.~Why not be- lieve the|glad good news?|Why still the voice of|
 [Ec]2 [FA]2 [EG]4 | [EG]2 [EG]>[EG] [Ec]2 [GB]2 | [FA]2 [FA]2 [Ad]4 | %6
w: race is giv’n!|Christ on the cross for|you and me|
w: by His blood:|When we the glad good|news be- lieve,|
w: God re- fuse?|Why not be- lieve, when|God hath said,|
 [Ge]2 [Gc]>[Gc] [GB]2 [Fd]2 | [Ec]2 [^FA]2 G4 |:"^Refrain" [EG]2 [EG]>[EG] [Ec]2 [EG]2 | %9
w: Pur- chased a par- don|full and free.||
w: Then the a- tone- ment|we re- ceive.|that be- liev- eth, he|
w: All, all our guilt “on|Him” was laid.||
 [FG]2 [FG]>[FG] [Fd]2 [FG]2 | [EG]2 [EG]>[EG] [Ge]2 [Ec][Ge] | [^Fd][Fc][FB][FA] G4 :| %12
w: |||
w: that be- liev- eth, He|that be- liev- eth hath ev-|er- last- ing life; He|
w: |||
 [EG]2 [EG]>[EG] [Ge]2 [Ec][Ge] | [Fd][Fd][Ec][DB] [Ec]4 |] %14
w: ||
w: be- liev- eth hath ev- er-|last- ing life. * *|
w: ||
V:2
 x8 | x8 | x8 | x8 | x8 | x8 | x8 | x4 G4 |: x8 | x8 | x8 | x4 G4 :| x8 | x8 |] %14
w: ||||||||||||||
w: |||||||He||||that|||
V:3
 [C,C]2 [C,C]>[C,C] [C,C]2 [E,C]2 | [F,C]2 [F,C]2 [F,C]4 | [G,C]2 [G,E]>[G,E] [G,D]2 [G,B,]2 | %3
 [C,C]2 [C,C]2 [C,C]4 | [C,C]2 [C,C]>[C,C] [C,C]2 [E,C]2 | [F,C]2 [F,C]2 [F,C]4 | %6
 [G,C]2 [G,E]>[G,E] [G,D]2 [G,B,]2 | [C,C]2 [D,C]2 [G,,B,]4 |: [C,C]2 [C,C]>[C,C] [C,C]2 [C,C]2 | %9
 [G,B,]2 [G,B,]>[G,B,] [G,B,]2 [G,B,]2 | [C,C]2 [C,C]>[C,C] [C,C]2 [C,G,][C,C] | %11
 [D,A,][D,A,][D,D][D,C] (z F,E,D,) :| [C,C]2 [C,C]>[C,C] [C,C]2 [C,G,][C,C] | %13
 [F,A,][F,A,]G,G, [C,G,]4 |] %14
V:4
 x8 | x8 | x8 | x8 | x8 | x8 | x8 | x8 |: x8 | x8 | x8 | x4 [G,B,]4 :| x8 | x2 G,G, x4 |] %14

